X:2
T:Fjellrilen
R:reel
D:Anon Egeland, 'Anon'
Z:Manuel Waldesco
S:Manuel Waldesco <mwal:wanadoo.es> tradtunes 2004-10-31
O:Norway
A:Agder
M:4/4
L:1/8
K:A
ef \
|: a2A2 A2ce | a2A2 A2Bc | d2dd dfed | c2ee ecee | fdff fagf |
| e^dee fe=dc | BAGA eBAG |1 A2A2 A2ef :|2 A2A2 A4 ||
|: E2cc cBcd | efde fde2 | E2cc cBcd | efde fdee | e^dee f=dBG | A2A2 A4 :|
